X: 4
T: the Duke Of Gordon #3
C:Niel Gow (1727-1807)
M:4/4
L:1/8
R:strathspey
F:http://www.thesession.org/tunes/display.php/2814	 2008-05-06 22:37:13 UT
K:D
F>E | D<A, B,>A, D>B, A,>F | G<E   F>D B,2 F>E \
    | D<A, B,>A, D>B, A,>B | A>F (3EFE D2     :|
B>c | d<A  B>F   A>F  D>F  | G<E   F>D B,2 B>c \
    | d<A  B>F   A>F  D>F  | G<E   B>c d2     ||
B>c | d<A  B>F   A>F  D>F  | G<E   F>D B,2 F>E \
    | D<A, B,>A, D>B, A,>B | A>F (3EFE D2     |]
